public/apps/atelier-des-idees/src/img/icn_76px_education.svg

<svg xmlns="http://www.w3.org/2000/svg" width="76" height="76" viewBox="0 0 76 76"><g fill="none" fill-rule="evenodd"><circle cx="38" cy="38" r="38" fill="#F2F5FE"/><path fill="#B7C8DB" d="M57.76019,34.22156 L57.76019,44.820715 C57.76019,45.331815 57.45144,45.791615 56.97929,45.985415 C56.15184,46.324565 55.24459,45.715615 55.24459,44.820715 L55.24459,35.25428 L50.94584,37.01903 L38.47234,42.13953 C38.32034,42.20603 38.15884,42.23453 37.99734,42.23453 C37.83584,42.23453 37.67434,42.20603 37.52234,42.13953 L25.04884,37.01903 L16.92729,33.68453 C15.89179,33.25703 15.89179,31.78453 16.92729,31.35703 L37.52234,22.89253 C37.82729,22.76903 38.16834,22.76903 38.47234,22.89253 L59.06834,31.35703 C60.10384,31.78453 60.10384,33.25703 59.06834,33.68453 L57.76019,34.22156 Z M39.194435,43.897125 L53.083435,38.197125 C53.092935,38.225625 53.092935,38.254125 53.092935,38.282625 L53.092935,46.595125 C53.092935,47.108125 52.789885,47.573625 52.314885,47.763625 L38.472435,53.444625 C38.168435,53.577625 37.827385,53.577625 37.522435,53.444625 L23.680935,47.763625 C23.205935,47.573625 22.902885,47.108125 22.902885,46.595125 L22.902885,38.282625 C22.902885,38.254125 22.902885,38.225625 22.911435,38.197125 L36.800435,43.897125 C37.180435,44.058625 37.579435,44.134625 37.997435,44.134625 C38.416385,44.134625 38.815385,44.058625 39.194435,43.897125 Z"/></g></svg>

<svg viewBox="0 0 76 76"><g fill="none" fill-rule="evenodd"><circle cx="38" cy="38" r="38" fill="#F2F5FE"/><path fill="#B7C8DB" d="M57.76 34.222V44.82a1.259 1.259 0 11-2.515 0v-9.567l-4.3 1.765-12.473 5.12a1.179 1.179 0 01-.475.096c-.161 0-.323-.029-.475-.095l-12.472-5.12-8.122-3.334c-1.035-.428-1.035-1.9 0-2.328l20.595-8.464a1.26 1.26 0 01.95 0l20.596 8.464c1.036.428 1.036 1.9 0 2.328l-1.308.537zm-18.566 9.675l13.89-5.7c.009.029.009.057.009.086v8.312c0 .513-.303.979-.778 1.169l-13.843 5.68a1.18 1.18 0 01-.95 0l-13.841-5.68a1.251 1.251 0 01-.778-1.169v-8.312c0-.029 0-.057.008-.086l13.89 5.7c.38.162.778.238 1.196.238.42 0 .818-.076 1.197-.238z"/></g></svg>
